X:2
T:Countdown
C:John Coltrane
L:1/4
M:C
I:linebreak $
K:C
"Em" A2"F7" A2 |"Bb" A2"Db7" _B2 |"Gb" _d2"A7" c _B |"D" A4 |$"Dm" G2"Eb7" G2 |"Ab" G2"B7" ^G2 |
"E" B2"G7" _B _A |"C" G4 |$"Cm" D _E"Db7" _B _A |"Gb" _d2"A7" c _B |"D" A2"F7" c2 |$
"Bb" F2 G/c/-c/_B/ |"Em" A4- |"F7" A F/G/ c/_B/F/G/ |$"Bb" A2 A2- |"Eb7" A4 :|"Em" A2"F7" A2 |
"Bb" A2"Db7" _B2 |"Gb" _d2"F7" c _B |$"Bb" A2"Eb7b5" G2 |"D" A4 |"Bb" d4 |"F#" ^c4 |"D" A4 |
"Bb" d4 |"F#" ^c4 |"D" ^c4- | c4 |]]

